Breeze Round Dark/actions/32/mail-reply-list.svg

<svg xmlns="http://www.w3.org/2000/svg" viewBox="0 0 32 32">
  <defs id="defs3051">
<style type="text/css" id="current-color-scheme">.ColorScheme-Text {color:#fcfcfc;}</style>
  </defs>
 <path 
     style="fill:currentColor;fill-opacity:1;stroke:none" 
     d="m 5,5 c 0,0 -3,9e-6 -3,3 v 7 H 3 V 8 C 3,7.000003 3.7675781,6.6855469 3.7675781,6.6855469 7.844852,10.685091 11.921751,14.685044 16,18.683594 l 3.214844,-3.142578 3.189453,3.117187 h 1.429687 L 19.929688,14.841797 C 22.957763,11.899462 25.233726,9.6578445 28.228516,6.6816406 28.228516,6.6816406 29,7.000003 29,8 v 10.658203 h 1 V 8 C 30,5.000009 27,5 27,5 Z M 4.453125,6 h 23.09375 L 16,17.285156 Z M 7,19 2,23 7,27 v -3 h 6 V 22 H 7 Z m 7,7 v 1 h 6 v -1 z m 7,-6 v 1 h 9 v -1 z m 0,3 v 1 h 9 v -1 z m 0,3 v 1 h 9 v -1 z"
     class="ColorScheme-Text"
     />
</svg>

<svg xmlns="http://www.w3.org/2000/svg" viewBox="0 0 32 32">
  <defs id="defs3051">
    <style type="text/css" id="current-color-scheme">
      .ColorScheme-Text {
        color:#eff0f1;
      }
      </style>
  </defs>
 <path 
     style="fill:currentColor;fill-opacity:1;stroke:none" 
     d="M 2 5 L 2 18 L 3 18 L 3 6 L 3.0234375 6 L 12.070312 14.841797 L 11 15.888672 L 11 17.285156 L 12.785156 15.541016 L 16 18.683594 L 19.214844 15.541016 L 21 17.285156 L 21 15.888672 L 19.929688 14.841797 L 28.976562 6 L 29 6 L 29 18 L 30 18 L 30 5 L 2 5 z M 4.453125 6 L 27.546875 6 L 16 17.285156 L 4.453125 6 z M 7 19 L 2 23 L 7 27 L 7 24 L 13 24 L 13 22 L 7 22 L 7 19 z M 21 20 L 21 21 L 30 21 L 30 20 L 21 20 z M 21 23 L 21 24 L 30 24 L 30 23 L 21 23 z M 13 26 L 13 27 L 20 27 L 20 26 L 13 26 z M 21 26 L 21 27 L 30 27 L 30 26 L 21 26 z "
     class="ColorScheme-Text"
     />
</svg>
